X: 1
T: Planxty Irwin
T: Colonel John Irwin
C: O'Carolan
B: O'Neill's 677
Z: 1997 by John Chambers <jc:trillian.mit.edu>
N: "Spirited"
M: 6/8
L: 1/8
K: G
d \
| "G"g2f "C"efg | "D7"d2c "G"BAG | "C"c>BA "G"Bcd |1,3 "D7"F2G A2 |2,4 "D7"G2F "G"G2 :|
|: d \
| "G"g2g g>fg | "D7"a>ba afd | "G"b2b "C"a>bg | "A7"f>ge "D7"def |
| "G"g2f "C"efg | "D7"d2c "G"BAG | "Am"c2A "G"Bcd | "D7"G2F "G"G2 :|
